X:67   
T:St Hubert 1997
C:Richard Forest
O:Qu\'ebec
Q:1/4=210
R:reel
M:C|   
L:1/8     
K:B Minor
(3BcB GB cABc | dcde fdef | gbge fdBd | cffg fedc |
(3BcB GB cABc | dcde fdef | gbge fdBd  |
[1cfec fedc :|2cfec fede |: ffdf afde | efed (3BcB AB |
ceAc eAce | dedc (3BcB AF | GBAG (3BcB AG | FAde f2 (3fff |
efga gfed |1cABc (3dcB Ad :|2cABc d2 c2 |]
